X: 105
T:Soun (2)
M:2/4
L:1/8
C:Stephane Rogowski
D:Les Brayauds : Jusqu'au Petit Matin, Silex Y225202
R:Bourree
Z:Steve Mansfield
K:C
af ag/f/ | ge gf/e/ | d_b2a | gf ef/g/ | af ag/f/ |
ge gf/e/ | d_b2a | ge f2 :: f4 | e4 | fd ec/d/ | ef gf/e/ |
f4 | e4 |1 de fg | ef gf/e/ :|2 de fa | g4 ||

